X:1
T:Title
%%score { ( 1 3 ) | ( 2 4 ) }
L:1/8
Q:1/4=100
M:4/4
K:Ab
V:1 treble nm="Grand Piano"
V:3 treble 
V:2 bass 
V:4 bass 
V:1
 [Ec]>[=D_c] [E=c]>[_DB] [CA]>[CG] [CA]>[CF] | [CE]>[_C=D] [=CE]>[_DF] [CE]4 | E>B, E>F E4 | %3
w: Samuel~W.~Beazley * * * * * * *|||
 [CE]>C [CE]>[CF] [CE]4 | [Ec]>[=D_c] [E=c]>[_DB] [CA]>[CG] [CA]>[CF] | %5
w: ||
 [CE]>[_C=D] [=CE]>[DF] [CE]4 | [B,=D]2 [DB]2 [B,D]2 [DB]2 | B6[K:bass][K:treble] z2 | %8
w: |||
 d>c d>c B2 E2 | [Ec]>[=D_c] [E=c]>[_DB] [CA]2 [CE]2 | [DF]2 [=EG]2 [FA]2 [FB]2 | %11
w: |||
 [=Ec]2 [Ec]2 [_Ed]4 | [Ec]>[=D_c] [E=c]>[_DB] [CA]>[CG] [CA]>[CF] | %13
w: ||
 [CE]>[_C=D] [=CE]>[_DF] [CE]4 | [DF]2 [Ee]>[Fd] [Ec]2 [DB]2 | [CA]6 z2 | c4 c4 | %17
w: ||||
 [Ec]>[=D_c] [E=c]>[_DB] [CA]2 [CE]2 | F4 A4 | G6 z2 | d4 d4 | d>c d>c B2 E2 | z2 D2 f2- [Gf]2 | %23
w: ||||||
 e6 z2 | c4 c4 | [Ec]>[=D_c] [E=c]>[_DB] [CA]2 [CE]2 | c4 e4 | d4 F4 | F6 z2 | z2 C2 C>E A>c | %30
w: |||||||
 [Ge]3 [Ge] [Gf]2 [Ge]2 | [Aa]6 z2 |] %32
w: ||
V:2
 [A,,A,]>[A,,A,] [A,,A,]>[A,,A,] [A,,A,]>[A,,A,] [A,,A,]>[A,,A,] | %1
 [A,,A,]>[A,,A,] [A,,A,]>[A,,A,] [A,,A,]4 | [E,G,B,]>[E,G,] .[E,G,D]>[E,G,D] [E,G,D]4 | %3
 [A,,A,]>[A,,A,] [A,,A,]>[A,,A,] [A,,A,]4 | %4
 [A,,A,]>[A,,A,] [A,,A,]>[A,,A,] [A,,A,]>[A,,A,] [A,,A,]>[A,,A,] | %5
 [A,,A,]>[A,,A,] [A,,A,]>[A,,A,] [A,,A,]4 | [B,,A,]2 [B,,A,]2 [B,,A,]2 [B,,A,]2 | [G,D]6 z2 | %8
 [E,G,E]>[E,_G,E] [E,=G,E]>[E,A,E] [E,G,D]2 [E,G,D]2 | %9
 [A,,A,]>[A,,A,] [A,,A,]>[A,,A,] [A,,A,]2 [A,,A,]2 | [D,A,]2 [C,C]2 [F,C]2 [D,F,]2 | %11
 [C,G,]2 [C,G,]2 [B,,G,]4 | [A,,A,]>[A,,A,] [A,,A,]>[A,,A,] [A,,A,]>[A,,A,] [A,,A,]>[A,,A,] | %13
 [A,,A,]>[A,,A,] [A,,A,]>[A,,A,] [A,,A,]4 | z2 A,2 z4 | [A,,A,]6 z2 | %16
 [A,,A,]2 [A,,A,]2 [A,,A,]2 [A,,A,]2 | [A,,A,]>[A,,A,] [A,,A,]>[A,,A,] [A,,A,]2 [A,,A,]2 | %18
 [A,,A,]2 [A,,A,]2 [A,,E,]2 [A,,E,]2 | [B,,E,]2 [B,,E,]2 .[E,B,]2 z2 | %20
 [E,G,E]2 [E,A,]2 [E,B,]2 [E,A,]2 | [E,G,E]>[E,_G,E] [E,=G,E]>[E,A,E] [E,G,D]2 [E,G,D]2 | %22
 [E,B,D]2 [E,B,]2 [E,D]2 [E,D]2 | [CA]>D E>F E>D C>[K:bass]B, | %24
 [A,,A,]2 [A,,A,]2 [A,,A,]2 [A,,A,]2 | [A,,A,]>[A,,A,] [A,,A,]>[A,,A,] [A,,A,]2 [A,,A,]2 | %26
 [A,E]2 A,2 [C,A,]2 [C,A,]2 | [D,A,]2 [D,A,]2 [D,A,D]2 [D,A,]2 | [D,A,_C]2 [D,A,]2 [D,A,]2 z2 | %29
 [E,A,C]2 [E,A,]2 [E,A,]>[E,A,C] [E,A,C]>[E,A,E] | [E,B,]3 [E,B,] [E,D]2 [E,D]2 | [A,,A,CE]6 z2 |] %32
V:3
 x8 | x8 | x8 | x8 | x8 | x8 | x8 | z2[K:bass] =E,2 _E,[K:treble]_G =G>B | x8 | x8 | x8 | x8 | x8 | %13
 x8 | x8 | x8 | E2 F2 A2 F2 | x8 | C2 C2 C2 C2 | D2 D2 D_G =G>B | z2 F2 G2 F2 | x8 | G4 G2 z2 | %23
 z z/ B/ c>d c>B A>G | E2 F2 A2 F2 | x8 | z2 E2 _G2 G2 | F2 F2 z2 D2 | z2 _C2 C>G A>F | E6 z2 | %30
 x8 | x8 |] %32
V:4
 x8 | x8 | x8 | x8 | x8 | x8 | x8 | E,2 z2 z4 | x8 | x8 | x8 | x8 | x8 | x8 | %14
 [D,A,]2 C,>D, [E,A,]2 [E,G,]2 | x8 | x8 | x8 | x8 | x8 | x8 | x8 | x8 | A,6 z2[K:bass] | x8 | x8 | %26
 x8 | x8 | x8 | x8 | x8 | x8 |] %32

